X:1
T:Sonata K.64 (Longo 58)
T:Sonata K.64 (Longo 58)
T:Gavotta
T:Domenico Scarlatti
T:Public Domain (PianoXML) - IMSLP280704 edition
T:Public Domain (PianoXML) - IMSLP280704 edition
C:Domenico Scarlatti
Z:Public Domain (PianoXML) - IMSLP280704 edition
%%score { ( 1 3 ) | ( 2 4 ) }
L:1/8
Q:1/4=108
M:2/4
K:F
V:1 treble nm="Piano" snm="Pno."
V:3 treble 
V:2 bass 
V:4 bass 
V:1
"^Allegro" [Adf]2 ed/^c/ | dA B2- | BG/F/ GA | FE/F/ D2 | [Adf]2 ed/^c/ | d^gaA | Tc=B/A/ B^G | %7
 AETFE | [^G=B]EPFE | [Ac]EPFE | [=Bd]EPFE | [ce]E ed/c/ | T=BA/B/ E^g | aA Ted/c/ | P=BA/B/ E^G | %15
 A2 z2 :: c2 c2 | cd/c/ fc | cd/c/ fc | cd/c/ fc | TdcBA | GFED | cBAG | Ff gf/e/ | FG A2- | %25
 AB/c/ BA | B^F G2- | GA/B/ AG | FA d2- | de/f/ ed | [A^ce]APBA | [^ce]APBA | [df]APBA | [eg]APBA | %34
 [fa]Aba | [Bg][Af][Ge][Fd] | d^c dG | [DFAd]2 [EGA^c]2 | dATBA | [^ce]ATBA | [df]ATBA | [eg]ATBA | %42
 [fa]A b/d/a/c/ | g/B/f/A/ e/G/d/F/ | d^c dG | [DFAd]2 [EGA^c]2 | [DFAd]2 z2 :| %47
V:2
 [D,A,D]2 [A,,E,A,]2 | [D,F,A,]2 z [G,,D,G,] | [A,,D,A,]2 [A,,E,G,]2 | [D,F,A,]3 [E,G,] | %4
 [D,F,A,]2 [A,,E,A,]2 | [F,A,D]2 z [F,A,D] | [E,A,C]2 [E,=B,D]2 | [A,,E,A,]2 z [A,,E,A,] | %8
 [^G,,E,A,=B,]2 z [G,,E,A,B,] | [A,,E,A,]2 z [A,,E,A,] | [=B,,D,E,^G,]2 z [B,,D,E,G,] | %11
 [C,E,A,]2 z [C,E,A,] | [D,A,=B,]2 [E,^G,A,B,]2 | [F,A,]2 z [C,E,A,] | [D,A,=B,]2 [E,^G,B,]2 | %15
 [A,,E,A,]2 A,/=G,/F,/E,/ :: [F,,F,]2 [E,G,C]2 | [F,A,C]2 z [E,G,C] | [F,A,C]2 z [E,G,C] | %19
 F,2 F,,F, | B,A,G,F, | E,D,C,B,, | A,,G,,F,,E,, | D,,2 C,,2 | F,,2 z2 | [^F,,D,^F,]2 [D,,D,]2 | %26
 [G,,B,,D,G,]2 z [G,,B,,D,G,] | [A,,D,E,G,A,]2 [A,,D,E,G,A,]2 | [D,F,A,]2 z [D,F,A,] | %29
 [B,,D,G,A,]2 [B,,D,G,A,]2 | [A,,^C,E,G,A,]2 z [A,,C,E,G,A,] | [^C,E,G,A,]2 z [C,E,G,A,] | %32
 [D,F,A,]2 z [D,F,A,] | [E,G,A,^C]2 z [E,G,A,C] | [F,A,D]2 z [F,A,D] | [G,B,D]2 z [G,,D,G,] | %36
 [A,,D,E,A,]2 [D,G,A,]2 | [A,,D,A,]2 [A,,D,E,G,A,]2 | [D,F,A,]2 z [D,F,A,] | %39
 [^C,E,G,A,]2 z [C,E,G,A,] | [D,F,A,]2 z [D,F,A,] | [E,G,A,^C]2 z [E,G,A,C] | [F,A,D]2 z [F,A,D] | %43
 [G,B,D]2 z [G,,D,G,] | [A,,D,E,A,]2 [D,G,A,]2 | [A,,D,A,]2 [A,,D,E,G,A,]2 | [D,F,A,]2 z2 :| %47
V:3
 x4 | x2 z D | D2 ^C2 | D2 x2 | x4 | x4 | x4 | x4 | x4 | x4 | x4 | x4 | x4 | x4 | x4 | x4 :: x4 | %17
 x4 | x4 | x4 | x4 | x4 | x4 | x4 | x2 z E | [A,D]2 x2 | x2 z D | ^C2 x2 | x2 z D | G4 | x4 | x4 | %32
 x4 | x4 | x4 | x4 | D2 D2 | x4 | F2 x2 | x4 | x4 | x4 | x4 | x4 | x4 | x4 | x4 :| %47
V:4
 x4 | x4 | x4 | x4 | x4 | x4 | x4 | x4 | x4 | x4 | x4 | x4 | x4 | x4 | x4 | x4 :: x4 | x4 | x4 | %19
 x4 | x4 | x4 | x4 | x4 | x4 | x4 | x4 | x4 | x4 | x4 | x4 | x4 | x4 | x4 | x4 | x4 | x2 B,,G,, | %37
 x4 | x4 | x4 | x4 | x4 | x4 | x4 | x2 B,,G,, | x4 | x4 :| %47

